dist/flags/jor.svg

<?xml version="1.0" encoding="UTF-8"?>
<svg xmlns="http://www.w3.org/2000/svg" width="840" height="420">
<rect width="840" height="420" fill="#007a3d"/>
<rect width="840" height="280" fill="#fff"/>
<rect width="840" height="140" fill="000"/>
<path d="M0,0V420L420,210z" fill="#ce1126"/>
<path d="M129.787138,180 136.295394,196.485467 153.242082,191.295306 144.411056,206.662186 159.034975,216.675628 141.51461,219.352347 142.80365,237.029066 129.787138,225 116.770625,237.029066 118.059665,219.352347 100.5393,216.675628 115.163219,206.662186 106.332193,191.295306 123.278882,196.485467 129.787138,180z" fill="#fff"/>
</svg>

<svg xmlns="http://www.w3.org/2000/svg" width="840" height="420"><path fill="#007a3d" d="M0 0h840v420H0z"/><path fill="#fff" d="M0 0h840v280H0z"/><path d="M0 0h840v140H0z"/><path d="M0 0v420l420-210z" fill="#ce1126"/><path d="M129.787 180l6.508 16.485 16.947-5.19-8.83 15.367 14.623 10.014-17.52 2.676 1.289 17.677L129.787 225l-13.016 12.03 1.289-17.678-17.52-2.676 14.623-10.014-8.83-15.367 16.946 5.19L129.787 180z" fill="#fff"/></svg>
